!!!OTL: Shiyue wanglang
!!!ARE: Asia, China,ˇJiangxi, Pingxiang
!! IV, 262
!!!SCT: C1693
!!!YEM: Copyright 1995, estate of Helmut Schaffrath.
**kern
*ICvox
*Ivox
!! Mixed meters:  2/4; 3/4
*M3/4
*k[f#c#g#]
*A:
{8ff#
4ff#
8aa
4ee
=1
2.ff#
=2
*M2/4
8ff#
8aa
8ff#
8ccc#
=3
*M3/4
8.bb
16ccc#
2bb}
=4
*M2/4
{8.bb
16ccc#
8bb
8ccc#
=5
8.bb
16ccc#
8bb
8ccc#
=6
4ff#
8.aa
16bb
=7
8.ee
16ff#
8cc#
8ee
=8
8.ff#
16aa
4ff#}
=9
{8ee
8ff#
8aa
8ff#
=10
8ff#
4.ee}
=11
{8ff#
8ff#
4ff#
=12
4.bb
8ccc#
=13
4aa
8bb
8aa
=14
*M3/4
4ff#
2ee}
=15
*M2/4
{8ee
8aa
4ff#
=16
2ee
=17
8ff#
8aa
8ff#
8ccc#
=18
*M3/4
2.bb}
=19
{8aa
8bb
4ff#
8r}
{8ff#
=20
*M2/4
8.bb
16ccc#
8bb
8ccc#
=21
8bb
8ccc#
8bb
8ccc#
=22
4ff#
8aa
8ff#
=23
8.ee
16ff#
8cc#
8ee
=24
2.ff#}
==
!!!AGN: Xiaodiao. NannÅ qing
!!!AMT: irregular
!!!AIN: vox
!!!EED: Helmut Schaffrath
!!!EEV: 1.0
*-
